X: 732
T: Ey Çerh-i Sitemger
C: Medenî Aziz Efendi
O: Turkey
F: http://compmusic.upf.edu/node/140
N: hicaz--sarki--turkaksagi--ey_cerhi_sitemger--medeni_aziz_efendi
N: makam= hicaz
N: form= sarki
N: usul= turkaksagi = 5/8
M: 5/8
L: 1/16
K: C _7/8B ^f ^c 
Q: 1/4=112
%%MIDI tuningsystem comma53
ABAG F6 | GA BGA6  | ABAG ABcd e=f | ed dcd6  | 
w:  ARANAĞME  |   |   |   | 
g2fg e4 f2 | ag =fed4ef  | g=fed c4 d2 | \
w:   |   |   | 
cB BAA6  | 
w:   | 
ABAG F6 | GA BGA6  | ABAG ABcd e=f | ed dcd6  | 
w:  ARANAĞME  |   |   |   | 
g2fg e4 f2 | ag =fed4ef  | g=fed c4 d2 | \
w:   |   |   | 
cB BAA6  | 
w:   | 
c3d d6 | e2 =feed dcd2  | edcd c4 (3BAB | \
w:  Ey  *  çerh_  |  i  *  si tem  |  ger   | 
cB BAA6  | 
w:  dil_ *  i  *  na  | 
edcd e4 f2 | g2 eg=f2 e2d2  | e2=fe fed2 dc | \
w:  lâ  |   |  na  do *  kun  | 
d3=fed cBA2  | 
w:  ma   SAZ  | 
c3d d6 | e2 =feed dcd2  | edcd c4 (3BAB | \
w:  Ey  *  çerh_  |  i  *  si tem  |  ger   | 
cB BAA6  | 
w:  dil_ *  i  *  na  | 
edcd e4 f2 | g2 eg=f2 e2d2  | e2=fe fed2 dc | \
w:  lâ  |   |  na  do *  kun  | 
d4GA Bcd2  | 
w:  ma   SAZ  | 
d3e f2g2 a2 | =ba gfag fed2  | e=fed g2f2 e2 | 
w:  Hicr_ *  â  |  le *  mi *  dir   |  et  | 
ed dcc6  | cdcB A6 | dc BAB4A2  | eddc cdcB BA | 
w:  di *  ğim  *  ef  |  ga  |   |  na  *  do *  kun  | 
A4GA Bcd2  | d3e f2g2 a2 | =ba gfag fed2  | \
w:  ma   SAZ  |  Hicr_ *  â  |  le *  mi *  dir   | 
e=fed g2f2 e2 | 
w:  et  | 
ed dcc6  | cdcB A6 | dc BAB4A2  | eddc cdcB BA | 
w:  di *  ğim  *  ef  |  ga  |   |  na  *  do *  kun  | 
A4g3/2f/ ^egf2  | d3f f6 | g2 a2a4z2  | \
w:  ma   SAZ  |  Ey  *  tiğ_  |  i  e lem   | 
=bagf efga bg | 
w:  yâ  | 
gf fee4z2  | edcd e4 f2 | g2 eg=f2 e2d2  | \
w:  re *  le *  din   |  cis  |   | 
e2=fe fed2 dc | 
w:  mi mi  *  ba  | 
d4g3/2f/ ^egf2  | d3f f6 | g2 a2a4z2  | \
w:  ri   SAZ  |  Ey  *  tiğ_  |  i  e lem   | 
=bagf efga bg | 
w:  yâ  | 
gf fee4z2  | edcd e4 f2 | g2 eg=f2 e2d2  | \
w:  re *  le *  din   |  cis  |   | 
e2=fe fed2 dc | 
w:  mi mi  *  ba  | 
d4GA Bcd2  | d3e f2g2 a2 | =ba gfag fed2  | \
w:  ri   SAZ  |  Hicr_ *  â  |  le *  mi *  dir   | 
e=fed g2f2 e2 | 
w:  et  | 
ed dcc6  | cdcB A6 | dc BAB4A2  | eddc cdcB BA | 
w:  di *  ğim  *  ef  |  ga  |   |  na  *  do *  kun  | 
A4GA Bcd2  | d3e f2g2 a2 | =ba gfag fed2  | \
w:  ma   SAZ  |  Hicr_ *  â  |  le *  mi *  dir   | 
e=fed g2f2 e2 | 
w:  et  | 
ed dcc6  | cdcB A6 | dc BAB4A2  | eddc cdcB BA | 
w:  di *  ğim  *  ef  |  ga  |   |  na  *  do *  kun  | 
A4|
w:  ma    | 


